public/avatar/emote/1.svg

<svg xmlns:xlink="http://www.w3.org/1999/xlink" height="100.8" width="132.65" xmlns="http://www.w3.org/2000/svg"><g transform="translate(77.75 73.55)"><use height="13.35" transform="translate(-12.232 -7.583) scale(.8127)" width="30.05" xlink:href="#a"/><use height="3.45" transform="translate(-3.95 4.25)" width="7.95" xlink:href="#b"/></g><defs><g id="a" transform="translate(15.05 6.5)"><use height="6.45" transform="translate(-15.05 .4)" width="30.05" xlink:href="#c"/><use height="13" transform="translate(0 -6.5)" width="10.7" xlink:href="#d"/><use height="13" transform="translate(-10.7 -6.45)" width="10.75" xlink:href="#e"/></g><g id="d"><path d="M8.8-4.25Q10.2-2.5 10.2 0q0 2.45-1.4 4.25Q7.35 6 5.35 6 3.3 6 1.9 4.25.45 2.45.5 0 .45-2.5 1.9-4.25 3.3-6.05 5.35-6q2-.05 3.45 1.75" fill="#fff" fill-rule="evenodd" transform="translate(0 6.5)"/><path d="M8.8-4.25Q10.2-2.5 10.2 0q0 2.45-1.4 4.25Q7.35 6 5.35 6 3.3 6 1.9 4.25.45 2.45.5 0 .45-2.5 1.9-4.25 3.3-6.05 5.35-6q2-.05 3.45 1.75Z" fill="none" stroke="#666" stroke-linecap="round" stroke-linejoin="round" transform="translate(0 6.5)"/><path d="m3.5-.05.2.5.4.3q.25-.05.4-.3l.2-.5-.2-.65-.4-.2q-.25 0-.4.2l-.2.65m1-1.75q.65-.05 1.15.6.5.65.5 1.65 0 .95-.5 1.6L4.5 2.7q-.7 0-1.2-.65-.45-.65-.45-1.6 0-1 .45-1.65.5-.65 1.2-.6" fill-rule="evenodd" transform="translate(0 6.5)"/><path d="m3.5-.05.2-.65q.15-.2.4-.2l.4.2.2.65-.2.5q-.15.25-.4.3l-.4-.3-.2-.5" fill="#fff" fill-rule="evenodd" transform="translate(0 6.5)"/></g><g id="f"><path d="M3.45-4.25Q4.85-2.5 4.85 0t-1.4 4.25Q2 6 0 6q-2.05 0-3.45-1.75Q-4.9 2.5-4.9 0t1.45-4.25Q-2.05-6 0-6q2 0 3.45 1.75" fill="#fff" fill-rule="evenodd" transform="translate(5.4 6.5)"/><path d="M3.45-4.25Q4.85-2.5 4.85 0t-1.4 4.25Q2 6 0 6q-2.05 0-3.45-1.75Q-4.9 2.5-4.9 0t1.45-4.25Q-2.05-6 0-6q2 0 3.45 1.75Z" fill="none" stroke="#666" stroke-linecap="round" stroke-linejoin="round" transform="translate(5.4 6.5)"/><path d="m0-.1.2.5q.15.25.4.3L1 .4l.2-.5L1-.75l-.4-.2q-.25 0-.4.2L0-.1m1-1.75q.65-.05 1.15.6.5.65.5 1.65 0 .95-.5 1.6-.5.65-1.15.65-.7 0-1.2-.65-.45-.65-.45-1.6 0-1 .45-1.65.5-.65 1.2-.6" fill-rule="evenodd" transform="translate(5.4 6.5)"/><path d="m0-.1.2-.65q.15-.2.4-.2l.4.2.2.65-.2.5-.4.3Q.35.65.2.4L0-.1" fill="#fff" fill-rule="evenodd" transform="translate(5.4 6.5)"/></g><path d="M10.65-1.35Q14.95.9 15 2.1q0 1.15-3.9.5l-10-.95-11.15.7q-5 .9-5-.3 0-1.15 4.5-3.35 4.5-2.25 10.7-2.3 6.2-.05 10.5 2.25" fill="#6596cc" fill-opacity=".431" fill-rule="evenodd" transform="translate(15.05 3.6)" id="c"/><path d="M-3.45 4.75.1 7.2l3.4-2.3" fill="none" stroke="#333" stroke-linecap="round" stroke-linejoin="round" transform="translate(3.95 -4.25)" id="b"/><use height="13" width="10.75" xlink:href="#f" id="e"/></defs></svg>

<?xml version="1.0" encoding="UTF-8" standalone="no"?>
<svg xmlns:xlink="http://www.w3.org/1999/xlink" height="100.8px" width="132.65px" xmlns="http://www.w3.org/2000/svg">
  <g transform="matrix(1.0, 0.0, 0.0, 1.0, 77.75, 73.55)">
    <use height="13.35" transform="matrix(0.8127, 0.0, 0.0, 0.8127, -12.2318, -7.5828)" width="30.05" xlink:href="#sprite0"/>
    <use height="3.45" transform="matrix(1.0, 0.0, 0.0, 1.0, -3.95, 4.25)" width="7.95" xlink:href="#shape3"/>
  </g>
  <defs>
    <g id="sprite0" transform="matrix(1.0, 0.0, 0.0, 1.0, 15.05, 6.5)">
      <use height="6.45" transform="matrix(1.0, 0.0, 0.0, 1.0, -15.05, 0.4)" width="30.05" xlink:href="#shape0"/>
      <use height="13.0" transform="matrix(1.0, 0.0, 0.0, 1.0, 0.0, -6.5)" width="10.7" xlink:href="#shape1"/>
      <use height="13.0" transform="matrix(1.0, 0.0, 0.0, 1.0, -10.7, -6.45)" width="10.75" xlink:href="#sprite1"/>
    </g>
    <g id="shape0" transform="matrix(1.0, 0.0, 0.0, 1.0, 15.05, 3.6)">
      <path d="M10.65 -1.35 Q14.95 0.9 15.0 2.1 15.0 3.25 11.1 2.6 L1.1 1.65 -10.05 2.35 Q-15.05 3.25 -15.05 2.05 -15.05 0.9 -10.55 -1.3 -6.05 -3.55 0.15 -3.6 6.35 -3.65 10.65 -1.35" fill="#6596cc" fill-opacity="0.43137255" fill-rule="evenodd" stroke="none"/>
    </g>
    <g id="shape1" transform="matrix(1.0, 0.0, 0.0, 1.0, 0.0, 6.5)">
      <path d="M8.8 -4.25 Q10.2 -2.5 10.2 0.0 10.2 2.45 8.8 4.25 7.35 6.0 5.35 6.0 3.3 6.0 1.9 4.25 0.45 2.45 0.5 0.0 0.45 -2.5 1.9 -4.25 3.3 -6.05 5.35 -6.0 7.35 -6.05 8.8 -4.25" fill="#ffffff" fill-rule="evenodd" stroke="none"/>
      <path d="M8.8 -4.25 Q10.2 -2.5 10.2 0.0 10.2 2.45 8.8 4.25 7.35 6.0 5.35 6.0 3.3 6.0 1.9 4.25 0.45 2.45 0.5 0.0 0.45 -2.5 1.9 -4.25 3.3 -6.05 5.35 -6.0 7.35 -6.05 8.8 -4.25 Z" fill="none" stroke="#666666" stroke-linecap="round" stroke-linejoin="round" stroke-width="1.0"/>
      <path d="M3.5 -0.05 L3.7 0.45 4.1 0.75 Q4.35 0.7 4.5 0.45 L4.7 -0.05 4.5 -0.7 4.1 -0.9 Q3.85 -0.9 3.7 -0.7 L3.5 -0.05 M4.5 -1.8 Q5.15 -1.85 5.65 -1.2 6.15 -0.55 6.15 0.45 6.15 1.4 5.65 2.05 L4.5 2.7 Q3.8 2.7 3.3 2.05 2.85 1.4 2.85 0.45 2.85 -0.55 3.3 -1.2 3.8 -1.85 4.5 -1.8" fill="#000000" fill-rule="evenodd" stroke="none"/>
      <path d="M3.5 -0.05 L3.7 -0.7 Q3.85 -0.9 4.1 -0.9 L4.5 -0.7 4.7 -0.05 4.5 0.45 Q4.35 0.7 4.1 0.75 L3.7 0.45 3.5 -0.05" fill="#ffffff" fill-rule="evenodd" stroke="none"/>
    </g>
    <g id="sprite1" transform="matrix(1.0, 0.0, 0.0, 1.0, 5.4, 6.5)">
      <use height="13.0" transform="matrix(1.0, 0.0, 0.0, 1.0, -5.4, -6.5)" width="10.75" xlink:href="#shape2"/>
    </g>
    <g id="shape2" transform="matrix(1.0, 0.0, 0.0, 1.0, 5.4, 6.5)">
      <path d="M3.45 -4.25 Q4.85 -2.5 4.85 0.0 4.85 2.5 3.45 4.25 2.0 6.0 0.0 6.0 -2.05 6.0 -3.45 4.25 -4.9 2.5 -4.9 0.0 -4.9 -2.5 -3.45 -4.25 -2.05 -6.0 0.0 -6.0 2.0 -6.0 3.45 -4.25" fill="#ffffff" fill-rule="evenodd" stroke="none"/>
      <path d="M3.45 -4.25 Q4.85 -2.5 4.85 0.0 4.85 2.5 3.45 4.25 2.0 6.0 0.0 6.0 -2.05 6.0 -3.45 4.25 -4.9 2.5 -4.9 0.0 -4.9 -2.5 -3.45 -4.25 -2.05 -6.0 0.0 -6.0 2.0 -6.0 3.45 -4.25 Z" fill="none" stroke="#666666" stroke-linecap="round" stroke-linejoin="round" stroke-width="1.0"/>
      <path d="M0.0 -0.1 L0.2 0.4 Q0.35 0.65 0.6 0.7 L1.0 0.4 1.2 -0.1 1.0 -0.75 0.6 -0.95 Q0.35 -0.95 0.2 -0.75 L0.0 -0.1 M1.0 -1.85 Q1.65 -1.9 2.15 -1.25 2.65 -0.6 2.65 0.4 2.65 1.35 2.15 2.0 1.65 2.65 1.0 2.65 0.3 2.65 -0.2 2.0 -0.65 1.35 -0.65 0.4 -0.65 -0.6 -0.2 -1.25 0.3 -1.9 1.0 -1.85" fill="#000000" fill-rule="evenodd" stroke="none"/>
      <path d="M0.0 -0.1 L0.2 -0.75 Q0.35 -0.95 0.6 -0.95 L1.0 -0.75 1.2 -0.1 1.0 0.4 0.6 0.7 Q0.35 0.65 0.2 0.4 L0.0 -0.1" fill="#ffffff" fill-rule="evenodd" stroke="none"/>
    </g>
    <g id="shape3" transform="matrix(1.0, 0.0, 0.0, 1.0, 3.95, -4.25)">
      <path d="M-3.45 4.75 L0.1 7.2 3.5 4.9" fill="none" stroke="#333333" stroke-linecap="round" stroke-linejoin="round" stroke-width="1.0"/>
    </g>
  </defs>
</svg>
